src/assets/home_other/arrow-right.svg

<?xml version="1.0" encoding="UTF-8"?>
<svg width="82px" height="157px" viewBox="0 0 82 157" version="1.1" xmlns="http://www.w3.org/2000/svg" xmlns:xlink="http://www.w3.org/1999/xlink">
    <title>arrow-right</title>
    <g id="Page-1" stroke="none" stroke-width="1" fill="none" fill-rule="evenodd">
        <path d="M2.87984512,2.29894936 C-0.0721548065,5.25094929 -0.0721548065,10.0362825 2.87984512,12.9882824 L65.7745102,75.8829475 C66.7251769,76.8336142 66.8665102,77.9442808 66.8665102,78.5202808 C66.8665102,79.0976141 66.7251769,80.2069474 65.7745102,81.1576141 L2.87984512,144.052279 C-0.0721548065,147.004279 -0.0721548065,151.790946 2.87984512,154.742946 C5.83317838,157.694945 10.6171783,157.694945 13.5705115,154.742946 L76.4651766,91.8482805 C80.0251765,88.2882805 81.9851765,83.5549473 81.9851765,78.5202808 C81.9851765,73.4856143 80.0251765,68.752281 76.4651766,65.1922811 L13.5705115,2.29894936 C12.0931782,0.822949401 10.1598449,0.0842827526 8.22517832,0.0842827526 C6.2905117,0.0842827526 4.35717842,0.822949401 2.87984512,2.29894936 Z" id="arrow-right" fill="#9FD9AA" fill-rule="nonzero"></path>
    </g>
</svg>

<svg height="157" viewBox="0 0 82 157" width="82" xmlns="http://www.w3.org/2000/svg"><path d="m2.87984512 2.29894936c-2.95199993 2.95199993-2.95199993 7.73733314 0 10.68933304l62.89466508 62.8946651c.9506667.9506667 1.092 2.0613333 1.092 2.6373333 0 .5773333-.1413333 1.6866666-1.092 2.6373333l-62.89466508 62.8946649c-2.95199993 2.952-2.95199993 7.738667 0 10.690667 2.95333326 2.951999 7.73733318 2.951999 10.69066638 0l62.8946651-62.8946655c3.5599999-3.56 5.5199999-8.2933332 5.5199999-13.3279997s-1.96-9.7679998-5.5199999-13.3279997l-62.8946651-62.89333174c-1.4773333-1.47599996-3.4106666-2.21466661-5.34533318-2.21466661-1.93466662 0-3.8679999.73866665-5.3453332 2.21466661z" fill="#9fd9aa"/></svg>
